theme/icons/magic-wand.svg

<svg xmlns="http://www.w3.org/2000/svg" viewBox="0 0 20 20"><path d="M2 4l2-2c.1-.1.2-.2.5-.2s.4.1.6.2l13.1 13.1c.1.1.2.3.2.5 0 .3-.1.4-.2.5l-2 1.9c-.2.2-.3.3-.6.3s-.4-.1-.5-.2l-13-13c-.1-.1-.3-.3-.3-.5 0-.3 0-.4.2-.6zm6.1 2.8L4.9 3.6 3.7 4.8 6.8 8s1.3-1.1 1.3-1.2zM17.1 1.7l.3 1 1.1.4-1 .4-.4 1-.4-1-1.1-.3 1.1-.4c-.1 0 .4-1.1.4-1.1zm-3.5.6l.7 2.1 2.1.7-2.1.7-.7 2.2-.8-2.2-2.1-.6 2.1-.7c.1 0 .6-2.1.8-2.2zM10 1.7l.3 1 1.1.4-1 .4-.4 1-.3-.9-1.1-.4 1.1-.4c-.1 0 .3-1.1.3-1.1zm-7 7l.4.9 1.1.4-1.1.4-.4 1.1-.4-.9-1.1-.4 1.1-.4.4-1.1z"/></svg>

<?xml version="1.0" encoding="utf-8"?>
<!-- Generator: Adobe Illustrator 25.0.0, SVG Export Plug-In . SVG Version: 6.00 Build 0)  -->
<svg version="1.1" id="图层_1" xmlns="http://www.w3.org/2000/svg" xmlns:xlink="http://www.w3.org/1999/xlink" x="0px" y="0px"
	 viewBox="0 0 20 20" style="enable-background:new 0 0 20 20;" xml:space="preserve">
<g>
	<path d="M2,4l2-2c0.1-0.1,0.2-0.2,0.5-0.2S4.9,1.9,5.1,2l13.1,13.1c0.1,0.1,0.2,0.3,0.2,0.5c0,0.3-0.1,0.4-0.2,0.5L16.2,18
		c-0.2,0.2-0.3,0.3-0.6,0.3c-0.3,0-0.4-0.1-0.5-0.2L2.1,5.1C2,5,1.8,4.8,1.8,4.6C1.8,4.3,1.8,4.2,2,4z M8.1,6.8L4.9,3.6L3.7,4.8
		L6.8,8C6.8,8,8.1,6.9,8.1,6.8z"/>
	<path d="M17.1,1.7l0.3,1l1.1,0.4l-1,0.4l-0.4,1l-0.4-1l-1.1-0.3l1.1-0.4C16.6,2.8,17.1,1.7,17.1,1.7z M13.6,2.3l0.7,2.1l2.1,0.7
		l-2.1,0.7L13.6,8l-0.8-2.2l-2.1-0.6l2.1-0.7C12.9,4.5,13.4,2.4,13.6,2.3z M10,1.7l0.3,1l1.1,0.4l-1,0.4l-0.4,1L9.7,3.6L8.6,3.2
		l1.1-0.4C9.6,2.8,10,1.7,10,1.7z M3,8.7l0.4,0.9L4.5,10l-1.1,0.4L3,11.5l-0.4-0.9l-1.1-0.4l1.1-0.4L3,8.7z"/>
</g>
</svg>
